assets/images/icon/event-icons/cv.svg

<svg width="66" height="80" viewBox="0 0 66 80" fill="none" xmlns="http://www.w3.org/2000/svg">
<g clip-path="url(#clip0_2230_89)">
<path d="M2.7 26.4C2.4 26.1 2 26 1.6 26C1.2 26 0.8 26.2 0.5 26.5C0.2 26.7 0 27.1 0 27.5C0 27.9 0.2 28.3 0.5 28.6C0.8 28.9 1.2 29.1 1.6 29.1C2 29.1 2.4 28.9 2.7 28.6C3 28.3 3.2 27.9 3.2 27.5C3.1 27.1 2.9 26.7 2.7 26.4Z" fill="#B3B3C5"/>
<path d="M61.3004 0H29.8004C28.9004 0 28.2004 0.7 28.2004 1.6C28.2004 2.5 28.9004 3.2 29.8004 3.2H61.3004C62.2004 3.2 62.9004 3.9 62.9004 4.8V75C62.9004 75.9 62.2004 76.6 61.3004 76.6H4.70039C3.80039 76.6 3.10039 75.9 3.10039 75V33.3C3.10039 32.4 2.40039 31.7 1.50039 31.7C0.600391 31.7 -0.0996094 32.4 -0.0996094 33.3V75C-0.0996094 77.6 2.00039 79.7 4.60039 79.7H61.2004C63.8004 79.7 65.9004 77.6 65.9004 75V4.7C65.9004 2.1 63.8004 0 61.3004 0Z" fill="#B3B3C5"/>
<path d="M33.0004 6.20001C31.9004 6.20001 30.9004 6.30001 29.8004 6.40001C29.0004 6.50001 28.4004 7.30001 28.5004 8.20001C28.6004 9.00001 29.4004 9.60001 30.3004 9.50001C31.2004 9.40001 32.1004 9.30001 33.0004 9.30001C42.7004 9.30001 50.6004 17.2 50.6004 26.9C50.6004 31.2 49.0004 35.1 46.5004 38.2C45.4004 36.2 43.8004 34.5 41.9004 33.2C40.8004 32.4 39.6004 31.8 38.4004 31.4C39.8004 30 40.7004 28.1 40.7004 26V24.5C40.7004 20.3 37.3004 16.9 33.1004 16.9C28.9004 16.9 25.5004 20.3 25.5004 24.5V26C25.5004 28.1 26.4004 30.1 27.8004 31.4C26.6004 31.9 25.4004 32.5 24.3004 33.2C22.4004 34.5 20.8004 36.2 19.7004 38.2C17.7004 35.9 16.4004 33 15.8004 29.8C15.7004 29 14.9004 28.4 14.0004 28.5C13.2004 28.6 12.6004 29.4 12.7004 30.3C13.5004 35.1 16.0004 39.4 19.7004 42.6C23.4004 45.8 28.2004 47.6 33.1004 47.6C44.5004 47.6 53.8004 38.3 53.8004 26.9C53.7004 15.5 44.4004 6.20001 33.0004 6.20001ZM28.5004 24.5C28.5004 22 30.5004 20 33.0004 20C35.5004 20 37.5004 22 37.5004 24.5V26C37.5004 28.5 35.5004 30.5 33.0004 30.5C30.5004 30.5 28.5004 28.5 28.5004 26V24.5ZM33.0004 44.5C28.8004 44.5 24.9004 43 21.9004 40.5C24.0004 36.3 28.3004 33.6 33.0004 33.6C37.8004 33.6 42.0004 36.3 44.1004 40.5C41.1004 43 37.2004 44.5 33.0004 44.5Z" fill="#B3B3C5"/>
<path d="M47.2996 61.9H25.1996C24.2996 61.9 23.5996 62.6 23.5996 63.5C23.5996 64.4 24.2996 65.1 25.1996 65.1H47.2996C48.1996 65.1 48.8996 64.4 48.8996 63.5C48.8996 62.6 48.1996 61.9 47.2996 61.9Z" fill="#B3B3C5"/>
<path d="M19.7 53.6C19.4 53.3 19 53.1 18.6 53.1C18.2 53.1 17.8 53.3 17.5 53.6C17.2 53.9 17 54.3 17 54.7C17 55.1 17.2 55.5 17.5 55.8C17.8 56.1 18.2 56.3 18.6 56.3C19 56.3 19.4 56.1 19.7 55.8C20 55.5 20.2 55.1 20.2 54.7C20.2 54.3 20 53.9 19.7 53.6Z" fill="#B3B3C5"/>
<path d="M19.7 62.3C19.4 62 19 61.8 18.6 61.8C18.2 61.8 17.8 62 17.5 62.3C17.2 62.6 17 63 17 63.4C17 63.8 17.2 64.2 17.5 64.5C17.8 64.8 18.2 65 18.6 65C19 65 19.4 64.8 19.7 64.5C20 64.2 20.2 63.8 20.2 63.4C20.2 63 20 62.6 19.7 62.3Z" fill="#B3B3C5"/>
<path d="M47.2996 53.2H25.1996C24.2996 53.2 23.5996 53.9 23.5996 54.8C23.5996 55.7 24.2996 56.4 25.1996 56.4H47.2996C48.1996 56.4 48.8996 55.7 48.8996 54.8C48.8996 53.9 48.1996 53.2 47.2996 53.2Z" fill="#B3B3C5"/>
<path d="M18.3004 8.99999C17.7004 8.39999 16.7004 8.39999 16.1004 8.99999L11.0004 14L9.30039 12.3C8.70039 11.7 7.70039 11.7 7.10039 12.3C6.50039 12.9 6.50039 13.9 7.10039 14.5L9.90039 17.3C10.2004 17.6 10.6004 17.8 11.0004 17.8C11.4004 17.8 11.8004 17.6 12.1004 17.3L18.3004 11.1C18.9004 10.6 18.9004 9.59999 18.3004 8.99999Z" fill="#B3B3C5"/>
<path d="M12.8 0C5.7 0 0 5.7 0 12.8C0 19.8 5.7 25.6 12.8 25.6C19.8 25.6 25.6 19.9 25.6 12.8C25.5 5.7 19.8 0 12.8 0ZM12.8 22.4C7.5 22.4 3.2 18.1 3.2 12.8C3.2 7.5 7.5 3.2 12.8 3.2C18.1 3.2 22.4 7.5 22.4 12.8C22.4 18.1 18.1 22.4 12.8 22.4Z" fill="#B3B3C5"/>
</g>
<defs>
<clipPath id="clip0_2230_89">
<rect width="65.9" height="79.6" fill="white"/>
</clipPath>
</defs>
</svg>

<svg width="66" height="80" fill="none" xmlns="http://www.w3.org/2000/svg"><g clip-path="url(#a)" fill="#B3B3C5"><path d="M2.7 26.4c-.3-.3-.7-.4-1.1-.4-.4 0-.8.2-1.1.5-.3.2-.5.6-.5 1s.2.8.5 1.1c.3.3.7.5 1.1.5.4 0 .8-.2 1.1-.5.3-.3.5-.7.5-1.1-.1-.4-.3-.8-.5-1.1ZM61.3 0H29.8c-.9 0-1.6.7-1.6 1.6 0 .9.7 1.6 1.6 1.6h31.5c.9 0 1.6.7 1.6 1.6V75c0 .9-.7 1.6-1.6 1.6H4.7c-.9 0-1.6-.7-1.6-1.6V33.3c0-.9-.7-1.6-1.6-1.6-.9 0-1.6.7-1.6 1.6V75c0 2.6 2.1 4.7 4.7 4.7h56.6c2.6 0 4.7-2.1 4.7-4.7V4.7c0-2.6-2.1-4.7-4.6-4.7Z"/><path d="M33 6.2c-1.1 0-2.1.1-3.2.2-.8.1-1.4.9-1.3 1.8.1.8.9 1.4 1.8 1.3.9-.1 1.8-.2 2.7-.2 9.7 0 17.6 7.9 17.6 17.6 0 4.3-1.6 8.2-4.1 11.3-1.1-2-2.7-3.7-4.6-5-1.1-.8-2.3-1.4-3.5-1.8 1.4-1.4 2.3-3.3 2.3-5.4v-1.5c0-4.2-3.4-7.6-7.6-7.6-4.2 0-7.6 3.4-7.6 7.6V26c0 2.1.9 4.1 2.3 5.4-1.2.5-2.4 1.1-3.5 1.8-1.9 1.3-3.5 3-4.6 5-2-2.3-3.3-5.2-3.9-8.4-.1-.8-.9-1.4-1.8-1.3-.8.1-1.4.9-1.3 1.8.8 4.8 3.3 9.1 7 12.3 3.7 3.2 8.5 5 13.4 5 11.4 0 20.7-9.3 20.7-20.7C53.7 15.5 44.4 6.2 33 6.2Zm-4.5 18.3c0-2.5 2-4.5 4.5-4.5s4.5 2 4.5 4.5V26c0 2.5-2 4.5-4.5 4.5s-4.5-2-4.5-4.5v-1.5Zm4.5 20c-4.2 0-8.1-1.5-11.1-4 2.1-4.2 6.4-6.9 11.1-6.9 4.8 0 9 2.7 11.1 6.9-3 2.5-6.9 4-11.1 4Zm14.3 17.4H25.2c-.9 0-1.6.7-1.6 1.6 0 .9.7 1.6 1.6 1.6h22.1c.9 0 1.6-.7 1.6-1.6 0-.9-.7-1.6-1.6-1.6Zm-27.6-8.3c-.3-.3-.7-.5-1.1-.5-.4 0-.8.2-1.1.5-.3.3-.5.7-.5 1.1 0 .4.2.8.5 1.1.3.3.7.5 1.1.5.4 0 .8-.2 1.1-.5.3-.3.5-.7.5-1.1 0-.4-.2-.8-.5-1.1Zm0 8.7c-.3-.3-.7-.5-1.1-.5-.4 0-.8.2-1.1.5-.3.3-.5.7-.5 1.1 0 .4.2.8.5 1.1.3.3.7.5 1.1.5.4 0 .8-.2 1.1-.5.3-.3.5-.7.5-1.1 0-.4-.2-.8-.5-1.1Zm27.6-9.1H25.2c-.9 0-1.6.7-1.6 1.6 0 .9.7 1.6 1.6 1.6h22.1c.9 0 1.6-.7 1.6-1.6 0-.9-.7-1.6-1.6-1.6ZM18.3 9c-.6-.6-1.6-.6-2.2 0L11 14l-1.7-1.7c-.6-.6-1.6-.6-2.2 0-.6.6-.6 1.6 0 2.2l2.8 2.8c.3.3.7.5 1.1.5.4 0 .8-.2 1.1-.5l6.2-6.2c.6-.5.6-1.5 0-2.1Z"/><path d="M12.8 0C5.7 0 0 5.7 0 12.8c0 7 5.7 12.8 12.8 12.8 7 0 12.8-5.7 12.8-12.8C25.5 5.7 19.8 0 12.8 0Zm0 22.4c-5.3 0-9.6-4.3-9.6-9.6s4.3-9.6 9.6-9.6 9.6 4.3 9.6 9.6-4.3 9.6-9.6 9.6Z"/></g><defs><clipPath id="a"><path fill="#fff" d="M0 0h65.9v79.6H0z"/></clipPath></defs></svg>
